svg/OSM-icons/shop #ac39ac °ffffff !label=enshops,deLäden/29089;shop=kiosk;!name=;[shop];!label=enkiosk,deKiosk.svg

<svg xmlns="http://www.w3.org/2000/svg" viewBox="0 0 580 580" enable-background="new 0 0 580 580"><path fill="#111" stroke="#eee" stroke-width="3.408" d="m66.28 1.768c-41.34 0-64.57 21.371-64.57 65.04v450.12c0 40.844 20.895 62.23 62.19 62.23h452.02c41.31 0 62.23-20.315 62.23-62.23v-450.12c0-42.602-20.923-65.04-63.52-65.04-.003 0-448.5-.143-448.35 0z"/><g fill="#fff"><path d="m326.83 265.53h-230l-40 125c0 27.06 21.938 49 49 49h200c27.06 0 49-21.938 49-49l-28-125m-111 21h94v10h-94v-10m0 32h97v6h-97v-6m0 20.668h100.33v6h-100.33v-6m0 20.666h104v6h-104v-6m0 20.666h109v6h-109v-6m-22-2v13 26h-102c-9-6-7-26-7-26l30-100h79v87m138 27h-116v-6h116v6"/><path d="m492.36 169.68c-4.671-2.578-10.185-5.365-15.89-7.71v-87.18c0-3.555-2.882-6.437-6.437-6.437h-31.887c-3.555 0-6.437 2.882-6.437 6.437v86.86c-14.66 5.528-30.15 14.658-37.23 23.03-5.767 6.83-6.913 13.372-6.604 18.232v280.31c0 6.04 2.808 11.74 7.596 15.424 15.26 11.734 46.535 13 59.27 13 14.01 0 40.22-1.475 58.3-11.354 6.241-3.412 10.125-9.959 10.125-17.07v-281.21c0-2.515-.488-5.01-1.437-7.336-1.38-3.395-4.617-11.344-29.372-25.01"/></g></svg>

<?xml version="1.0" encoding="utf-8"?>
<!-- Generator: Adobe Illustrator 15.0.0, SVG Export Plug-In . SVG Version: 6.00 Build 0)  -->
<!DOCTYPE svg PUBLIC "-//W3C//DTD SVG 1.1//EN" "http://www.w3.org/Graphics/SVG/1.1/DTD/svg11.dtd">
<svg version="1.1" xmlns="http://www.w3.org/2000/svg" xmlns:xlink="http://www.w3.org/1999/xlink" x="0px" y="0px" width="580px"
	 height="580px" viewBox="0 0 580 580" enable-background="new 0 0 580 580" xml:space="preserve">
<g id="Layer_1">
	<g id="Layer_2">
		<g id="g1327">
			<path id="path1329" fill="#111111" stroke="#EEEEEE" stroke-width="3.408" d="M66.275,1.768
				c-41.335,0-64.571,21.371-64.571,65.036v450.123c0,40.844,20.895,62.229,62.192,62.229h452.024
				c41.307,0,62.229-20.315,62.229-62.229V66.804c0-42.602-20.923-65.036-63.521-65.036C514.625,1.768,66.133,1.625,66.275,1.768z"
				/>
		</g>
	</g>
</g>
<g id="Layer_2_1_">
	<g>
		<path fill="#FFFFFF" d="M326.833,265.531h-230l-40,125c0,27.063,21.938,49,49,49h200c27.063,0,49-21.938,49-49L326.833,265.531z
			 M215.833,286.531h94v10h-94V286.531z M215.833,318.531h97v6h-97V318.531z M215.833,339.199h100.334v6H215.833V339.199z
			 M215.833,359.865h104v6h-104V359.865z M215.833,380.531h109v6h-109V380.531z M193.833,378.531v13v26h-102c-9-6-7-26-7-26l30-100
			h79V378.531z M331.833,405.531h-116v-6h116V405.531z"/>
		<path fill="#FFFFFF" d="M492.356,169.675c-4.671-2.578-10.185-5.365-15.89-7.71V74.784c0-3.555-2.882-6.437-6.437-6.437h-31.887
			c-3.555,0-6.437,2.882-6.437,6.437v86.864c-14.66,5.528-30.153,14.658-37.227,23.034c-5.767,6.83-6.913,13.372-6.604,18.232
			v280.312c0,6.041,2.808,11.74,7.596,15.424c15.26,11.734,46.535,13.002,59.273,13.002c14.015,0,40.222-1.475,58.297-11.354
			c6.241-3.412,10.125-9.959,10.125-17.072V202.017c0-2.515-0.488-5.007-1.437-7.336
			C520.348,191.286,517.111,183.337,492.356,169.675z"/>
	</g>
</g>
</svg>
